**kern	**dynam
*clefG2	*
*k[b-e-]	*
*B-:	*
*M3/4	*
=1	=1
2d	f
4g	.
=2	=2
(<8gL	.
8f)	.
8f	.
8e-)	.
(<8e-	.
8dJ)	.
=3	=3
4d'	.
4d'	.
4d'	.
=4	=4
4e-'	.
4e-'	.
4g'	.
=5	=5
4f	.
4f	.
12gL	.
12e-	.
12cJ	.
=6	=6
4d	.
4r	.
4r	.
=7	=7
(2d	.
4c)	.
=8	=8
4B-	.
4r	.
4r	.
=9	=9
!!linebreak:original
(2d	.
4c)	.
=10	=10
4B-	.
4r	.
4r	.
=11:|!|:	=11:|!|:
!!linebreak:original
4a	.
4a	.
4a	.
=12	=12
4b-	.
4r	.
4r	.
=13	=13
4g	.
4g	.
4g	.
=14	=14
4f	.
4r	.
4r	.
=15	=15
4f	.
4a	.
4f	.
=16	=16
4cc	.
4b-	.
4a	.
=17	=17
4b-	.
4cc	.
4c	.
=18	=18
4f	.
4r	.
4r	.
=19	=19
4ff'	.
4ff'	.
4ff'	.
=20	=20
(8ff#XL	.
8ggJ	.
8ffnL	.
8ee-J	.
8ddL	.
8ccJ)	.
=21	=21
4ee-'	.
4ee-'	.
4ee-'	.
=22	=22
(8eenL	.
8ffJ	.
8ee-XL	.
8ddJ	.
8ccL	.
8b-J)	.
=23	=23
!!linebreak:original
4a	.
4cc	.
4b-	.
=24	=24
4qqb-/	.
2a	.
4r	.
=25	=25
2d	.
4g	.
=26	=26
(8gL	.
8fJ)	.
(8fL	.
8e-J)	.
(8e-L	.
8dJ)	.
=27	=27
4d'	.
4d'	.
4d'	.
=28	=28
4e-'	.
4e-'	.
4g'	.
=29	=29
4f	.
4f	.
(12gL	.
12e-	.
12cJ)	.
=30	=30
4d	.
4r	.
4r	.
=31	=31
(2d	.
4c)	.
=32	=32
4B-	.
4r	.
4r	.
=33	=33
(2d	.
4c)	.
=34	=34
4B-	.
4r	.
4r	.
=35:|!|:	=35:|!|:
!!linebreak:original
*k[b-e-a-]	*
*E-:	*
2.r	.
=36	=36
4r	.
4r	.
(>4gg	.
=37	=37
4ee-')	.
4b-'	.
4g'	.
=38	=38
4B-'	.
4r	.
4r	.
=39	=39
4r	.
4r	.
(>4ff	.
=40	=40
4dd')	.
4a-'	.
4f'	.
=41	=41
4e-'	.
4r	.
4r	.
=42	=42
4r	.
4r	.
(4b-	.
=43	=43
4a-)	.
4f	.
4r	.
=44	=44
4r	.
4r	.
(4g	.
=45	=45
4f)	.
4d	.
4r	.
=46	=46
4r	.
4r	.
4b-'	.
=47	=47
!!linebreak:original
4B-'	.
(4f	.
4e-)	.
=48	=48
4d	.
4r	.
4r	.
=49:|!|:	=49:|!|:
2.r	.
=50	=50
4r	.
4r	.
(4b-	.
=51	=51
4g')	.
4en'	.
4r	.
=52	=52
4r	.
4r	.
(4a-	.
=53	=53
4f')	.
4d'	.
4r	.
=54	=54
4r	.
4r	.
(4g	.
=55	=55
4a-')	.
4f'	.
4r	.
=56	=56
4r	.
4r	.
(4dd	.
=57	=57
4ee-')	.
4cc'	.
4r	.
=58	=58
4r	.
4r	.
(4gg	.
=59	=59
4ee-')	.
4b-'	.
4g'	.
=60	=60
4e-'	.
4r	.
4r	.
=61	=61
!LO:TX:i:t=M.D.C.	!
2.r	.
=62	=62
2.r	.
=:|!	=:|!
*-	*-
!!!RDF**kern: > = above
!!!RDF**kern: < = below
